X: 32
T:The Big Reel of Callightown
B:Dave Bulmer I
M:C
L:1/8
K:G
~g2 gf ~g2 gf| ~g2 ag fd ~d2| ~g2 fg abag| fdcA BGBd|
g2 fg a=ffe| =fgfd e3 ^c| ~d2 de fdcB| AGFG AG ~G2 :|
DG ~G2 A2 dc| AGFG AGGF| DG ~G2 A2 dc| AGFG AG ~G2|
DG ~G2 A2 dc| AGFG ABcA| ~d2 de fe d2| dedc AG G2 :|
